X: 21655
T: Killomud Rambler, The
R: jig
M: 6/8
K: Cmajor
CEG GED|CEG ~c3|cde ega|age edc|
cdd dcA|ded def|edc dcA|cdc AGE:|
D3 D/E/FG|AGE F2A|GEC DCA,|CA,G, G,A,C|
DED DEG|AGA c/d/cB|cde age|dcA AGE|
EDD DEG|AGE F2A|GEC DCA,|CA,G, G,2A,|
CEG GED|CEG ~c3|cde age|d3 d3|

